X: 156
T:Dusty Windowsills
M:6/8
L:1/8
Q:200
C:Trad Irish
R:jig
K:ADor
E|A2 B cBA|eAB cBA|~G3 EGG|DGG EFG|
A2 B cBA|e2 d efg|age dBG|ABA A2:|
g|a3 age|dBd ~g3 f|gag gfe|dBA GFG|
EGG DGG|EGG ABc|Bed BAG|ABA A2:|
G|ABA gAf|ABA geB|GAG eGd|GAG edB|
ABA gAf|ABA efg|age dBG|ABA A2:||

